X: 1526
T: Harry McQueen's Prince Imperials
B: australian traditional tunes wiki
M:2/4
L:1/16
R: Polka
Q: 1/4=100
K:G
V:1 
|:"G"d4 "D7"d3c|"G"B2G2G4|"Am"c2A2 "D7"d3c|"G"B2G2G4|
d4"D7"d3c|"G"B2G2G4|"Am"c2A2 "D7"F3A|"G"G4G2d2:|
|:"G"B2d2 d3B|"C"c2e2 e2dc|"G"B2d2 d3B|"D7"c2A2A4|
"G"B2d2 d2dB|"C"c2e2 e3d|"G"B2d2 "D7"c3A|"G"B2G2G4:|
% abcbook-tune_id 6342d53a2da14298b0ce207a


% abcbook-boost 0
% abcbook-tablature 
% abcbook-transpose 
% abcbook-lastupdated 1665324369389
% abcbook-soundfonts 
% abcbook-repeats 1
% NFF Book 2019

